coptic-neo-reader/editor/assets/ic_folder.svg

<svg width="24" height="24" viewBox="0 0 24 24" fill="none" xmlns="http://www.w3.org/2000/svg">
<g id="icon/file/folder_24px">
<path id="icon/file/folder_24px_2" fill-rule="evenodd" clip-rule="evenodd" d="M4 4H10L12 6H20C21.1 6 22 6.9 22 8V18C22 19.1 21.1 20 20 20H4C2.89999 20 2 19.1 2 18L2.01001 6C2.01001 4.9 2.89999 4 4 4ZM11.17 8L9.17001 6H4V18H20V8H11.17Z" fill="black" fill-opacity="0.54"/>
</g>
</svg>

<svg xmlns="http://www.w3.org/2000/svg" fill="none" viewBox="0 0 24 24"><path fill="#000" fill-opacity=".54" fill-rule="evenodd" d="M4 4h6l2 2h8c1.1 0 2 .9 2 2v10c0 1.1-.9 2-2 2H4c-1.1 0-2-.9-2-2l.01-12c0-1.1.89-2 1.99-2Zm7.17 4-2-2H4v12h16V8h-8.83Z" clip-rule="evenodd"/></svg>
